style-guide/assets/wds-icons-indent-left.svg

<svg xmlns="http://www.w3.org/2000/svg" xmlns:xlink="http://www.w3.org/1999/xlink" width="24" height="24" viewBox="0 0 24 24">
  <defs>
    <path id="indent-left-a" d="M17,11.0001406 L3.414,11.0001406 L8.707,5.70722332 C9.098,5.31622943 9.098,4.68423931 8.707,4.29324542 C8.316,3.90225153 7.684,3.90225153 7.293,4.29324542 L0.293,11.293136 C0.196,11.3891345 0.124,11.5001328 0.075,11.619131 C0.027,11.7351291 0,11.8631271 0,11.997125 L0,12.003125 C0,12.1371229 0.027,12.2651209 0.075,12.381119 C0.124,12.5001172 0.196,12.6111155 0.293,12.707114 L7.293,19.7070046 C7.488,19.9020015 7.744,20 8,20 C8.256,20 8.512,19.9020015 8.707,19.7070046 C9.098,19.3160107 9.098,18.6840206 8.707,18.2930267 L3.414,13.0001094 L17,13.0001094 C17.553,13.0001094 18,12.5531164 18,12.000125 C18,11.4471336 17.553,11.0001406 17,11.0001406 M23,1 C22.447,1 22,1.447 22,2 L22,22 C22,22.553 22.447,23 23,23 C23.553,23 24,22.553 24,22 L24,2 C24,1.447 23.553,1 23,1"/>
  </defs>
  <use fill-rule="evenodd" xlink:href="#indent-left-a"/>
</svg>

<svg xmlns="http://www.w3.org/2000/svg" xmlns:xlink="http://www.w3.org/1999/xlink" viewBox="0 0 24 24">
  <defs>
    <path id="indent-left-a" d="M17 11H3.414l5.293-5.293a.999.999 0 1 0-1.414-1.414l-7 7a.983.983 0 0 0-.293.704v.006a.988.988 0 0 0 .293.704l7 7a.997.997 0 0 0 1.414 0 .999.999 0 0 0 0-1.414L3.414 13H17a1 1 0 1 0 0-2m6-10a1 1 0 0 0-1 1v20a1 1 0 1 0 2 0V2a1 1 0 0 0-1-1"/>
  </defs>
  <use fill-rule="evenodd" xlink:href="#indent-left-a"/>
</svg>
